X:1
T:Trip to Brighthelmstone. Ru2.001, A
%%VWML:RutherfordVol2-2249-p1-0
F:http://www.vwml.org/record/RutherfordVol2/2249/p1
B:RUTHERFORD Complete Collection of 200 Country Dances Vol.2; 1759.
Z:vmp.Mike Hicken 2015 www.village-music-project.org.uk
M:C|
Q:1/4=100
K:G
(G/A/B/c/ d)g dBGB|cABG F D2F|EC2E cE-Ec|(B/c/d) DF G2G2 :|
|: gd2g bddB|fc2f accA|BGcA dBge|f/g/a Ac d2d2|
gd2g bBBd|cA2c aAAc|BGcA dBgc (B/c/d) DF G2G2 :|
W:
W: Right hands across .|  left back again :|  cross
W: over two Cu: lead to the top and cast off .|.
W: Hands round with the 3d Cu: right and left at
W: top .|
T:Lady Harriot Benticks Fancy. Ru2.002
L:1/8
B:RUTHERFORD Complete Collection of 200 Country Dances Vol.2; 1759.
Z:vmp.Mike Hicken 2015 www.village-music-project.org.uk
M:C|
Q:1/4=100
K:F
g|(a/g/f/g/ a)f gecf|edcB AGFg|afda gecf|edc=B c3 :|
|: B|ABc_e (d/c/B/c/ d)B|GBdf ec=Bc|bgec afcB|ABcE {E}F3:|
W:
W: Cast off two Cu:  .|  up again :|  cross
W: over two Cu: .|.  up again and cast off :|.
W: set corners .|:  lead out sides :|.
